src/actions/22/format-font-size-less.svg

<svg xmlns="http://www.w3.org/2000/svg" viewBox="0 0 22 22">
  <defs id="defs3051">
    <style type="text/css" id="current-color-scheme">
      .ColorScheme-Text {
        color:#2e3440;
      }
      </style>
  </defs>
 <path 
    style="fill:currentColor;fill-opacity:1;stroke:none" 
    d="M 8.2167969 3 L 3 17 L 4.6875 17 L 6.3554688 12.570312 L 11.917969 12.570312 L 12.066406 13 L 13.732422 13 L 10.210938 3 L 8.2167969 3 z M 9.2324219 4.6113281 L 11.361328 11.285156 L 6.8730469 11.285156 L 9.2324219 4.6113281 z M 15 12.792969 L 15 17.085938 L 12.707031 14.792969 L 12 15.5 L 15.292969 18.792969 L 15.5 19 L 15.707031 18.792969 L 19 15.5 L 18.292969 14.792969 L 16 17.085938 L 16 12.792969 L 15 12.792969 z "
    class="ColorScheme-Text"
    />  
</svg>

<svg viewBox="0 0 22 22" xmlns="http://www.w3.org/2000/svg">
 <defs>
  <style type="text/css">.ColorScheme-Text {
        color:#2e3440;
      }</style>
 </defs>
 <path class="ColorScheme-Text" d="m8.2168 3-5.2168 14h1.6875l1.668-4.4297h5.5625l0.14844 0.42969h1.666l-3.5215-10h-1.9941zm1.0156 1.6113 2.1289 6.6738h-4.4883l2.3594-6.6738zm5.7676 8.1816v4.293l-2.293-2.293-0.70703 0.70703 3.5 3.5 3.5-3.5-0.70703-0.70703-2.293 2.293v-4.293h-1z" fill="currentColor"/>
</svg>
